src/components/bit-eraser-mode/eraser.svg

<?xml version="1.0" encoding="UTF-8"?>
<svg width="20px" height="20px" viewBox="0 0 20 20" version="1.1" xmlns="http://www.w3.org/2000/svg" xmlns:xlink="http://www.w3.org/1999/xlink">
    <!-- Generator: Sketch 49.3 (51167) - http://www.bohemiancoding.com/sketch -->
    <title>eraser</title>
    <desc>Created with Sketch.</desc>
    <defs></defs>
    <g id="eraser" stroke="none" stroke-width="1" fill="none" fill-rule="evenodd">
        <path d="M9.30022904,14.1996946 L7.89984723,14.1996946 L7.89984723,12.7997327 L6.49988541,12.7997327 L6.49988541,11.3997709 L5.09992359,11.3997709 L5.09992359,9.99840913 L3.69996177,9.99840913 L3.69996177,8.59984728 L2.29999995,8.59984728 L2.29999995,7.19988546 L3.69996177,7.19988546 L3.69996177,5.79992364 L5.09992359,5.79992364 L5.09992359,4.39996182 L6.49988541,4.39996182 L6.49988541,3 L7.89984723,3 L7.89984723,4.39996182 L9.30120901,4.39996182 L9.30120901,5.79992364 L10.7011708,5.79992364 L10.7011708,7.19988546 L12.1011326,7.19988546 L12.1011326,8.59984728 L13.4996945,8.59984728 L13.4996945,9.99840913 L12.1011326,9.99840913 L12.1011326,11.3997709 L10.7011708,11.3997709 L10.7011708,12.7997327 L9.30120901,12.7997327 L9.30120901,14.1995546 L10.7001909,14.1995546 L10.7001909,15.5995164 L9.30022904,15.5995164 L9.30022904,14.1996946 Z M10.7001909,16.9994782 L10.7001909,15.5995164 L14.9000763,15.5995164 L14.9000763,16.9994782 L10.7001909,16.9994782 Z M14.9000763,15.5995164 L14.9000763,14.1995546 L16.3000381,14.1995546 L16.3000381,15.5995164 L14.9000763,15.5995164 Z M14.9000763,12.7995927 L14.9000763,11.3996309 L16.3000381,11.3996309 L16.3000381,12.7995927 L14.9000763,12.7995927 Z M16.3000381,14.1995546 L16.3000381,12.7995927 L17.7,12.7995927 L17.7,14.1995546 L16.3000381,14.1995546 Z M13.5001145,11.3996309 L13.5001145,9.99826914 L14.9000763,9.99826914 L14.9000763,11.3996309 L13.5001145,11.3996309 Z" id="Combined-Shape" fill="#575E75"></path>
    </g>
</svg>

<svg width="20" height="20" xmlns="http://www.w3.org/2000/svg"><path d="M9.30023 14.1997H7.89985v-1.39997H6.49989v-1.39996H5.09992V9.99841H3.69996V8.59985H2.3V7.19989h1.39996V5.79992h1.39996V4.39996H6.4999V3h1.39996v1.39996H9.3012v1.39996h1.39996V7.1999h1.39996v1.39996h1.39856V9.9984h-1.39856v1.40136h-1.39996v1.39996H9.30121v1.39982h1.39898v1.39997H9.30023v-1.39983zm1.39996 2.79978v-1.39996h4.19989v1.39996h-4.19989zm4.19989-1.39996v-1.39997h1.39996v1.39997h-1.39996zm0-2.79993v-1.39996h1.39996v1.39996h-1.39996zm1.39996 1.39996V12.7996H17.7v1.39996h-1.39996zm-2.79993-2.79992V9.99827h1.39997v1.40136H13.5001z" fill="#575E75" fill-rule="evenodd"/></svg>
